X:101
T:Jackson's
M:C
L:1/8
K:D Major
B,|D2FD EDFE|DEFD EA,A,2|CEE2 GBed|cABc dBAF|!
D2FD EDFE|DEFD EA,A,2|CEE2 GBed|cAGE EDD:|!
e|fddc defd|e2ce fece|A2cA BAcB|ABcA Bcde|!
fddc defd|e2ce fece|A2ce faeg|fddc d3:|!
B|A3B AFF2|F2AF GFED|E3F GFEF|GBec dBAE|!
D2FD EDFE|DEFD EA,A,2|CEE2 GBed|cAGE EDD|]!
